X: 1
T: Schottis from Blyberg
T: Blyberg schottis
C: trad.
O: Blyberg, \"Alvdalen, Sweden
R: shottish
S: Fiddle Hell Online 2021 workshop handout
Z: 2021 John Chambers <jc:trillian.mit.edu> 2021-05-26
M: C
L: 1/8
K: D
|: "D"vD>FAF D>FAF | "G"G>ABA "(Em)"G2G2 | "A7"A>cec A>cec |[1,3 "D"d>efe d2d2 :|[2,4 "D"vd2d2 vd4 :|
|: "D"vA2f2 f>edc | "G"B2g2 g>fed | "A7"c2a2 [1,3 a2^ga | "D"b>afd "(A)"A4 :|[2,4 a>gec | "D"vd2d2 vd4 :|
